src/Static/Positions/ks-position-29.svg

<?xml version="1.0" encoding="UTF-8"?>
<svg width="229px" height="159px" viewBox="0 0 229 159" version="1.1" xmlns="http://www.w3.org/2000/svg" xmlns:xlink="http://www.w3.org/1999/xlink">
    <title>sex-etsy-29</title>
    <defs>
        <path d="M54.7575,69.3266 C56.8971,69.3266 58.9528,69.9819 60.7038,71.2216 C63.2572,73.0304 64.7305,75.7987 64.9964,78.6944 L67.6931,74.8544 C69.3575,72.4844 71.7664,70.7996 74.4765,69.9796 C74.0777,69.5174 73.6738,69.0524 73.262,68.5829 C62.9845,57.0013 49.7787,57.4802 42.7154,62.7257 C37.1651,66.8499 36.6833,75.4137 39.8685,82.8172 L46.3454,73.6733 C48.2751,70.9516 51.4196,69.3266 54.7575,69.3266 Z" id="path-1"></path>
        <filter x="-23.2%" y="-27.5%" width="149.6%" height="178.0%" filterUnits="objectBoundingBox" id="filter-2">
            <feMorphology radius="1.5" operator="dilate" in="SourceAlpha" result="shadowSpreadOuter1"></feMorphology>
            <feOffset dx="0" dy="2" in="shadowSpreadOuter1" result="shadowOffsetOuter1"></feOffset>
            <feGaussianBlur stdDeviation="2" in="shadowOffsetOuter1" result="shadowBlurOuter1"></feGaussianBlur>
            <feComposite in="shadowBlurOuter1" in2="SourceAlpha" operator="out" result="shadowBlurOuter1"></feComposite>
            <feColorMatrix values="0 0 0 0 0   0 0 0 0 0   0 0 0 0 0  0 0 0 1 0" type="matrix" in="shadowBlurOuter1"></feColorMatrix>
        </filter>
        <circle id="path-3" cx="38.3376354" cy="31.3521416" r="22.5000112"></circle>
        <filter x="-18.9%" y="-14.4%" width="137.8%" height="137.8%" filterUnits="objectBoundingBox" id="filter-4">
            <feMorphology radius="1.5" operator="dilate" in="SourceAlpha" result="shadowSpreadOuter1"></feMorphology>
            <feOffset dx="0" dy="2" in="shadowSpreadOuter1" result="shadowOffsetOuter1"></feOffset>
            <feGaussianBlur stdDeviation="2" in="shadowOffsetOuter1" result="shadowBlurOuter1"></feGaussianBlur>
            <feComposite in="shadowBlurOuter1" in2="SourceAlpha" operator="out" result="shadowBlurOuter1"></feComposite>
            <feColorMatrix values="0 0 0 0 0   0 0 0 0 0   0 0 0 0 0  0 0 0 1 0" type="matrix" in="shadowBlurOuter1"></feColorMatrix>
        </filter>
        <path d="M62.0633,82.871 C63.5811,79.4591 62.5388,75.3401 59.3746,73.0985 C55.7682,70.5453 50.7769,71.3983 48.2223,75.0028 L1.4723,141.0028 C-1.0814,144.6083 -0.2289,149.6009 3.3766,152.1551 C4.7809,153.1497 6.3952,153.6273 7.9938,153.6273 C10.5006,153.6273 12.9694,152.452 14.529,150.2508 L39.7521,114.6418 L62.0633,82.871 Z" id="path-5"></path>
        <filter x="-13.5%" y="-7.9%" width="127.1%" height="120.7%" filterUnits="objectBoundingBox" id="filter-6">
            <feMorphology radius="1.5" operator="dilate" in="SourceAlpha" result="shadowSpreadOuter1"></feMorphology>
            <feOffset dx="0" dy="2" in="shadowSpreadOuter1" result="shadowOffsetOuter1"></feOffset>
            <feGaussianBlur stdDeviation="2" in="shadowOffsetOuter1" result="shadowBlurOuter1"></feGaussianBlur>
            <feComposite in="shadowBlurOuter1" in2="SourceAlpha" operator="out" result="shadowBlurOuter1"></feComposite>
            <feColorMatrix values="0 0 0 0 0   0 0 0 0 0   0 0 0 0 0  0 0 0 1 0" type="matrix" in="shadowBlurOuter1"></feColorMatrix>
        </filter>
        <path d="M188.6817,51.7742 C190.2463,59.5208 175.237,71.5769 177.132,83.1182 C179.6053,98.1821 193.63,97.324 189.7735,94.9234 C185.9171,92.5228 182.7603,87.1269 192.5692,73.5231 C200.5749,62.4201 199.4464,54.4936 195.9565,48.8916 C194.8013,49.5863 193.5759,50.197 192.2768,50.7 C191.0901,51.1596 189.8884,51.5143 188.6817,51.7742 Z" id="path-7"></path>
        <filter x="-39.2%" y="-14.9%" width="178.5%" height="137.0%" filterUnits="objectBoundingBox" id="filter-8">
            <feMorphology radius="1.5" operator="dilate" in="SourceAlpha" result="shadowSpreadOuter1"></feMorphology>
            <feOffset dx="0" dy="2" in="shadowSpreadOuter1" result="shadowOffsetOuter1"></feOffset>
            <feGaussianBlur stdDeviation="2" in="shadowOffsetOuter1" result="shadowBlurOuter1"></feGaussianBlur>
            <feComposite in="shadowBlurOuter1" in2="SourceAlpha" operator="out" result="shadowBlurOuter1"></feComposite>
            <feColorMatrix values="0 0 0 0 0   0 0 0 0 0   0 0 0 0 0  0 0 0 0.5 0" type="matrix" in="shadowBlurOuter1"></feColorMatrix>
        </filter>
        <circle id="path-9" cx="183.6812" cy="28.5069475" r="21.4997087"></circle>
        <filter x="-19.8%" y="-15.1%" width="139.5%" height="139.5%" filterUnits="objectBoundingBox" id="filter-10">
            <feMorphology radius="1.5" operator="dilate" in="SourceAlpha" result="shadowSpreadOuter1"></feMorphology>
            <feOffset dx="0" dy="2" in="shadowSpreadOuter1" result="shadowOffsetOuter1"></feOffset>
            <feGaussianBlur stdDeviation="2" in="shadowOffsetOuter1" result="shadowBlurOuter1"></feGaussianBlur>
            <feComposite in="shadowBlurOuter1" in2="SourceAlpha" operator="out" result="shadowBlurOuter1"></feComposite>
            <feColorMatrix values="0 0 0 0 0   0 0 0 0 0   0 0 0 0 0  0 0 0 0.5 0" type="matrix" in="shadowBlurOuter1"></feColorMatrix>
        </filter>
        <path d="M150.2466,77.4249 L145.5911,61.1829 C144.2542,56.5183 146.9612,51.6355 151.6253,50.2986 C152.4192,50.0715 153.2366,49.9563 154.055,49.9563 C157.9573,49.9563 161.4339,52.5789 162.5091,56.3337 L164.9081,64.7035 C165.0475,64.4657 165.185,64.2237 165.318,63.972 C171.8556,51.604 165.8605,41.7303 156.2731,38.9549 C149.3224,44.6403 144.4616,44.2722 140.7472,44.0738 C136.8698,42.5742 132.8712,41.1804 130.3908,40.736 C130.4098,40.484 130.3805,40.225 130.2829,39.9735 C129.9343,39.0721 128.9206,38.6244 128.0192,38.9734 C127.1393,39.3141 126.6969,40.288 127.0011,41.1726 C120.5724,44.0164 113.8419,53.5679 127.1422,60.2757 C120.0309,73.3148 112.4386,82.1141 106.2189,88.1315 L83.9479,73.4446 C79.2077,70.3181 72.8395,71.5286 69.5749,76.176 L27.9079,135.509 C24.5749,140.2546 25.7204,146.8034 30.4665,150.136 C32.3015,151.4251 34.4069,152.0442 36.4919,152.0442 C39.7966,152.0442 43.0495,150.4876 45.0935,147.5774 L80.9001,96.5896 L103.1827,111.2842 L134.0654,101.9002 C139.5463,88.4512 145.1648,81.7548 150.2466,77.4249 Z" id="path-11"></path>
        <filter x="-6.0%" y="-5.8%" width="112.0%" height="115.1%" filterUnits="objectBoundingBox" id="filter-12">
            <feMorphology radius="1.5" operator="dilate" in="SourceAlpha" result="shadowSpreadOuter1"></feMorphology>
            <feOffset dx="0" dy="2" in="shadowSpreadOuter1" result="shadowOffsetOuter1"></feOffset>
            <feGaussianBlur stdDeviation="2" in="shadowOffsetOuter1" result="shadowBlurOuter1"></feGaussianBlur>
            <feComposite in="shadowBlurOuter1" in2="SourceAlpha" operator="out" result="shadowBlurOuter1"></feComposite>
            <feColorMatrix values="0 0 0 0 0   0 0 0 0 0   0 0 0 0 0  0 0 0 0.5 0" type="matrix" in="shadowBlurOuter1"></feColorMatrix>
        </filter>
        <path d="M160.2982,56.967 C159.3099,53.5163 155.7152,51.5207 152.2591,52.5095 C148.8079,53.4988 146.8128,57.0979 147.8021,60.5491 L160.6394,105.3361 L175.355,109.4974 L160.2982,56.967 Z" id="path-13"></path>
        <filter x="-30.6%" y="-11.4%" width="163.6%" height="130.9%" filterUnits="objectBoundingBox" id="filter-14">
            <feMorphology radius="1.5" operator="dilate" in="SourceAlpha" result="shadowSpreadOuter1"></feMorphology>
            <feOffset dx="0" dy="2" in="shadowSpreadOuter1" result="shadowOffsetOuter1"></feOffset>
            <feGaussianBlur stdDeviation="2" in="shadowOffsetOuter1" result="shadowBlurOuter1"></feGaussianBlur>
            <feComposite in="shadowBlurOuter1" in2="SourceAlpha" operator="out" result="shadowBlurOuter1"></feComposite>
            <feColorMatrix values="0 0 0 0 0   0 0 0 0 0   0 0 0 0 0  0 0 0 0.5 0" type="matrix" in="shadowBlurOuter1"></feColorMatrix>
        </filter>
        <path d="M202.5993,145.5722 C203.737,145.894 204.8806,146.0473 206.0075,146.0473 C211.4596,146.0468 216.4723,142.4511 218.029,136.9452 C219.9079,130.3021 216.0446,123.3939 209.402,121.5155 L144.569,103.182 C142.2663,102.5311 139.8229,102.5541 137.5338,103.2504 L100.727,114.4344 L99.056,114.9422 C98.5855,113.3702 98.1116,111.8495 97.6313,110.3789 L81.4987,99.7397 L64.4277,124.048 C65.796,127.2668 66.9665,130.5225 67.8385,133.783 C68.067,134.4379 68.2941,135.0492 68.5209,135.6372 C68.6089,136.1514 68.7182,136.6655 68.8738,137.1776 C69.6234,139.6451 71.0691,141.7098 72.929,143.225 C73.5287,143.7821 74.1482,144.1934 74.7953,144.4783 C77.6489,146.0539 81.1075,146.5254 84.4675,145.5033 L108.505,138.1993 L141.2937,128.2362 L202.5993,145.5722 Z" id="path-15"></path>
        <filter x="-5.7%" y="-15.2%" width="111.2%" height="137.9%" filterUnits="objectBoundingBox" id="filter-16">
            <feMorphology radius="1.5" operator="dilate" in="SourceAlpha" result="shadowSpreadOuter1"></feMorphology>
            <feOffset dx="0" dy="2" in="shadowSpreadOuter1" result="shadowOffsetOuter1"></feOffset>
            <feGaussianBlur stdDeviation="2" in="shadowOffsetOuter1" result="shadowBlurOuter1"></feGaussianBlur>
            <feComposite in="shadowBlurOuter1" in2="SourceAlpha" operator="out" result="shadowBlurOuter1"></feComposite>
            <feColorMatrix values="0 0 0 0 0   0 0 0 0 0   0 0 0 0 0  0 0 0 1 0" type="matrix" in="shadowBlurOuter1"></feColorMatrix>
        </filter>
    </defs>
    <g id="Page-2" stroke="none" stroke-width="1" fill="none" fill-rule="evenodd">
        <g id="sex-etsy-29" transform="translate(5.000000, -2.000000)" fill-rule="nonzero">
            <g id="Path">
                <use fill="black" fill-opacity="1" filter="url(#filter-2)" xlink:href="#path-1"></use>
                <use stroke="#1A1A1D" stroke-width="3" fill="#4E4E50" xlink:href="#path-1"></use>
            </g>
            <g id="Oval" transform="translate(38.337635, 31.352142) rotate(-25.391416) translate(-38.337635, -31.352142) ">
                <use fill="black" fill-opacity="1" filter="url(#filter-4)" xlink:href="#path-3"></use>
                <use stroke="#1A1A1D" stroke-width="3" fill="#4E4E50" xlink:href="#path-3"></use>
            </g>
            <g id="Path">
                <use fill="black" fill-opacity="1" filter="url(#filter-6)" xlink:href="#path-5"></use>
                <use stroke="#1A1A1D" stroke-width="3" fill="#4E4E50" xlink:href="#path-5"></use>
            </g>
            <g id="Path">
                <use fill="black" fill-opacity="1" filter="url(#filter-8)" xlink:href="#path-7"></use>
                <use stroke="#1A1A1D" stroke-width="3" fill="#6F2232" xlink:href="#path-7"></use>
            </g>
            <g id="Oval" transform="translate(183.681200, 28.506948) rotate(-66.164916) translate(-183.681200, -28.506948) ">
                <use fill="black" fill-opacity="1" filter="url(#filter-10)" xlink:href="#path-9"></use>
                <use stroke="#1A1A1D" stroke-width="3" fill="#6F2232" xlink:href="#path-9"></use>
            </g>
            <g id="Path">
                <use fill="black" fill-opacity="1" filter="url(#filter-12)" xlink:href="#path-11"></use>
                <use stroke="#1A1A1D" stroke-width="3" fill="#6F2232" xlink:href="#path-11"></use>
            </g>
            <g id="Path">
                <use fill="black" fill-opacity="1" filter="url(#filter-14)" xlink:href="#path-13"></use>
                <use stroke="#1A1A1D" stroke-width="3" fill="#6F2232" xlink:href="#path-13"></use>
            </g>
            <g id="Path">
                <use fill="black" fill-opacity="1" filter="url(#filter-16)" xlink:href="#path-15"></use>
                <use stroke="#1A1A1D" stroke-width="3" fill="#4E4E50" xlink:href="#path-15"></use>
            </g>
        </g>
    </g>
</svg>

<svg xmlns="http://www.w3.org/2000/svg" xmlns:xlink="http://www.w3.org/1999/xlink" width="229" height="159"><defs><filter id="o" width="111.2%" height="137.9%" x="-5.7%" y="-15.2%" filterUnits="objectBoundingBox"><feMorphology in="SourceAlpha" operator="dilate" radius="1.5" result="shadowSpreadOuter1"/><feOffset dy="2" in="shadowSpreadOuter1" result="shadowOffsetOuter1"/><feGaussianBlur in="shadowOffsetOuter1" result="shadowBlurOuter1" stdDeviation="2"/><feComposite in="shadowBlurOuter1" in2="SourceAlpha" operator="out" result="shadowBlurOuter1"/><feColorMatrix in="shadowBlurOuter1" values="0 0 0 0 0 0 0 0 0 0 0 0 0 0 0 0 0 0 1 0"/></filter><filter id="c" width="137.8%" height="137.8%" x="-18.9%" y="-14.4%" filterUnits="objectBoundingBox"><feMorphology in="SourceAlpha" operator="dilate" radius="1.5" result="shadowSpreadOuter1"/><feOffset dy="2" in="shadowSpreadOuter1" result="shadowOffsetOuter1"/><feGaussianBlur in="shadowOffsetOuter1" result="shadowBlurOuter1" stdDeviation="2"/><feComposite in="shadowBlurOuter1" in2="SourceAlpha" operator="out" result="shadowBlurOuter1"/><feColorMatrix in="shadowBlurOuter1" values="0 0 0 0 0 0 0 0 0 0 0 0 0 0 0 0 0 0 1 0"/></filter><filter id="e" width="127.1%" height="120.7%" x="-13.5%" y="-7.9%" filterUnits="objectBoundingBox"><feMorphology in="SourceAlpha" operator="dilate" radius="1.5" result="shadowSpreadOuter1"/><feOffset dy="2" in="shadowSpreadOuter1" result="shadowOffsetOuter1"/><feGaussianBlur in="shadowOffsetOuter1" result="shadowBlurOuter1" stdDeviation="2"/><feComposite in="shadowBlurOuter1" in2="SourceAlpha" operator="out" result="shadowBlurOuter1"/><feColorMatrix in="shadowBlurOuter1" values="0 0 0 0 0 0 0 0 0 0 0 0 0 0 0 0 0 0 1 0"/></filter><filter id="g" width="178.5%" height="137%" x="-39.2%" y="-14.9%" filterUnits="objectBoundingBox"><feMorphology in="SourceAlpha" operator="dilate" radius="1.5" result="shadowSpreadOuter1"/><feOffset dy="2" in="shadowSpreadOuter1" result="shadowOffsetOuter1"/><feGaussianBlur in="shadowOffsetOuter1" result="shadowBlurOuter1" stdDeviation="2"/><feComposite in="shadowBlurOuter1" in2="SourceAlpha" operator="out" result="shadowBlurOuter1"/><feColorMatrix in="shadowBlurOuter1" values="0 0 0 0 0 0 0 0 0 0 0 0 0 0 0 0 0 0 0.5 0"/></filter><filter id="a" width="149.6%" height="178%" x="-23.2%" y="-27.5%" filterUnits="objectBoundingBox"><feMorphology in="SourceAlpha" operator="dilate" radius="1.5" result="shadowSpreadOuter1"/><feOffset dy="2" in="shadowSpreadOuter1" result="shadowOffsetOuter1"/><feGaussianBlur in="shadowOffsetOuter1" result="shadowBlurOuter1" stdDeviation="2"/><feComposite in="shadowBlurOuter1" in2="SourceAlpha" operator="out" result="shadowBlurOuter1"/><feColorMatrix in="shadowBlurOuter1" values="0 0 0 0 0 0 0 0 0 0 0 0 0 0 0 0 0 0 1 0"/></filter><filter id="i" width="139.5%" height="139.5%" x="-19.8%" y="-15.1%" filterUnits="objectBoundingBox"><feMorphology in="SourceAlpha" operator="dilate" radius="1.5" result="shadowSpreadOuter1"/><feOffset dy="2" in="shadowSpreadOuter1" result="shadowOffsetOuter1"/><feGaussianBlur in="shadowOffsetOuter1" result="shadowBlurOuter1" stdDeviation="2"/><feComposite in="shadowBlurOuter1" in2="SourceAlpha" operator="out" result="shadowBlurOuter1"/><feColorMatrix in="shadowBlurOuter1" values="0 0 0 0 0 0 0 0 0 0 0 0 0 0 0 0 0 0 0.5 0"/></filter><filter id="k" width="112%" height="115.1%" x="-6%" y="-5.8%" filterUnits="objectBoundingBox"><feMorphology in="SourceAlpha" operator="dilate" radius="1.5" result="shadowSpreadOuter1"/><feOffset dy="2" in="shadowSpreadOuter1" result="shadowOffsetOuter1"/><feGaussianBlur in="shadowOffsetOuter1" result="shadowBlurOuter1" stdDeviation="2"/><feComposite in="shadowBlurOuter1" in2="SourceAlpha" operator="out" result="shadowBlurOuter1"/><feColorMatrix in="shadowBlurOuter1" values="0 0 0 0 0 0 0 0 0 0 0 0 0 0 0 0 0 0 0.5 0"/></filter><filter id="m" width="163.6%" height="130.9%" x="-30.6%" y="-11.4%" filterUnits="objectBoundingBox"><feMorphology in="SourceAlpha" operator="dilate" radius="1.5" result="shadowSpreadOuter1"/><feOffset dy="2" in="shadowSpreadOuter1" result="shadowOffsetOuter1"/><feGaussianBlur in="shadowOffsetOuter1" result="shadowBlurOuter1" stdDeviation="2"/><feComposite in="shadowBlurOuter1" in2="SourceAlpha" operator="out" result="shadowBlurOuter1"/><feColorMatrix in="shadowBlurOuter1" values="0 0 0 0 0 0 0 0 0 0 0 0 0 0 0 0 0 0 0.5 0"/></filter><path id="f" d="M62.06 82.87A8 8 0 0048.22 75L1.47 141a8 8 0 0013.06 9.25l25.22-35.6 22.31-31.78z"/><path id="p" d="M202.6 145.57a12.5 12.5 0 106.8-24.05l-64.83-18.34a12.5 12.5 0 00-7.04.07l-36.8 11.18-1.67.51c-.47-1.57-.95-3.09-1.43-4.56L81.5 99.74l-17.07 24.3a73.64 73.64 0 013.4 9.74c.24.66.46 1.27.7 1.86a12.43 12.43 0 004.4 7.59c.6.55 1.22.96 1.87 1.25a12.45 12.45 0 009.67 1.02l24.03-7.3 32.8-9.96 61.3 17.33z"/><path id="l" d="M150.25 77.42l-4.66-16.24a8.81 8.81 0 0116.92-4.85l2.4 8.37c.14-.23.28-.48.4-.73 6.55-12.37.55-22.24-9.04-25.02-6.95 5.69-11.8 5.32-15.52 5.12-3.88-1.5-7.88-2.89-10.36-3.33.02-.26 0-.52-.1-.77a1.75 1.75 0 00-3.29 1.2c-6.43 2.85-13.16 12.4.14 19.1-7.1 13.04-14.7 21.84-20.92 27.86L83.95 73.44a10.5 10.5 0 00-14.38 2.74L27.91 135.5a10.5 10.5 0 1017.18 12.07L80.9 96.59l22.28 14.7 30.89-9.39c5.48-13.45 11.1-20.15 16.18-24.48z"/><path id="h" d="M188.68 51.77c1.57 7.75-13.44 19.8-11.55 31.35 2.48 15.06 16.5 14.2 12.64 11.8-3.85-2.4-7.01-7.8 2.8-21.4 8-11.1 6.88-19.03 3.39-24.63a23.84 23.84 0 01-7.28 2.88z"/><path id="n" d="M160.3 56.97a6.5 6.5 0 10-12.5 3.58l12.84 44.79 14.72 4.16-15.06-52.53z"/><path id="b" d="M54.76 69.33A10.28 10.28 0 0165 78.7l2.7-3.85a12.8 12.8 0 016.78-4.87c-.4-.46-.8-.93-1.22-1.4C62.98 57 49.78 57.48 42.72 62.73c-5.55 4.12-6.04 12.68-2.85 20.09l6.48-9.15a10.33 10.33 0 018.4-4.34z"/><circle id="d" cx="38.338" cy="31.352" r="22.5"/><circle id="j" cx="183.681" cy="28.507" r="21.5"/></defs><g fill="none" fill-rule="nonzero"><g transform="translate(5 -2)"><use fill="#000" filter="url(#a)" xlink:href="#b"/><use fill="#4E4E50" stroke="#1A1A1D" stroke-width="3" xlink:href="#b"/></g><g transform="rotate(-25.391 36.399 19.255)"><use fill="#000" filter="url(#c)" xlink:href="#d"/><use fill="#4E4E50" stroke="#1A1A1D" stroke-width="3" xlink:href="#d"/></g><g transform="translate(5 -2)"><use fill="#000" filter="url(#e)" xlink:href="#f"/><use fill="#4E4E50" stroke="#1A1A1D" stroke-width="3" xlink:href="#f"/></g><g transform="translate(5 -2)"><use fill="#000" filter="url(#g)" xlink:href="#h"/><use fill="#6F2232" stroke="#1A1A1D" stroke-width="3" xlink:href="#h"/></g><g transform="rotate(-66.165 184.646 23.67)"><use fill="#000" filter="url(#i)" xlink:href="#j"/><use fill="#6F2232" stroke="#1A1A1D" stroke-width="3" xlink:href="#j"/></g><g transform="translate(5 -2)"><use fill="#000" filter="url(#k)" xlink:href="#l"/><use fill="#6F2232" stroke="#1A1A1D" stroke-width="3" xlink:href="#l"/></g><g transform="translate(5 -2)"><use fill="#000" filter="url(#m)" xlink:href="#n"/><use fill="#6F2232" stroke="#1A1A1D" stroke-width="3" xlink:href="#n"/></g><g transform="translate(5 -2)"><use fill="#000" filter="url(#o)" xlink:href="#p"/><use fill="#4E4E50" stroke="#1A1A1D" stroke-width="3" xlink:href="#p"/></g></g></svg>
